X:212
T:Tr\"askopolskan
T:Polska efter Per Larsson Lindahl
R:sl\"angpolska
H:jfr #127, #115
A:Sk{\aa}ne
B:SvL Sk 1361
Z:id:hn-sp-212
M:3/4
L:1/16
K:C
e2e2 f2f2 e4 | edcd efed d2cd | e2e2 f2f2 e2g2 | {a}gfe2 d4 c4 :|
|: c2e2 d2f2 {g}fed2 | c2e2 d2f2 {g}fed2 | c3e g3g g3g | gfed d4 c4 :|

